svgs/sharp-light/farm.svg

<svg xmlns="http://www.w3.org/2000/svg" viewBox="0 0 576 512"><!--! Font Awesome Pro 6.6.0 by @fontawesome - https://fontawesome.com License - https://fontawesome.com/license (Commercial License) Copyright 2024 Fonticons, Inc. --><path d="M32 480l0-288 123.7 0 17.1-32L32 160l0-48c0-44.2 35.8-80 80-80s80 35.8 80 80l0 12 5.6-10.6 7.8-14.7L220.8 92l1.4-.6C212.5 39.4 166.8 0 112 0C50.1 0 0 50.1 0 112L0 480l0 32 32 0 96 0 0-16 0-16-96 0zM374.4 65.3L368 62.5l-6.4 2.8-128 56-5.1 2.2-2.6 4.9-64 120L160 252l0 4 0 240 0 16 16 0 384 0 16 0 0-16 0-240 0-4-1.9-3.5-64-120-2.6-4.9-5.1-2.2-128-56zM192 260l59.5-111.6L368 97.5l116.5 51L544 260l0 220-96 0 0-96 0-16-16 0-128 0-16 0 0 16 0 96-96 0 0-220zM416 480l-96 0 0-80 96 0 0 80zM336 192l-32 0 0 32 0 64 0 32 32 0 64 0 32 0 0-32 0-64 0-32-32 0-64 0zm64 32l0 64-64 0 0-64 64 0z"/></svg>

<svg xmlns="http://www.w3.org/2000/svg" viewBox="0 0 576 512"><!--! Font Awesome Pro 6.4.0 by @fontawesome - https://fontawesome.com License - https://fontawesome.com/license (Commercial License) Copyright 2023 Fonticons, Inc. --><path d="M32 480V192H155.7l17.1-32H32V112c0-44.2 35.8-80 80-80s80 35.8 80 80v12l5.6-10.6 7.8-14.7L220.8 92l1.4-.6C212.5 39.4 166.8 0 112 0C50.1 0 0 50.1 0 112V480v32H32h96V496 480H32zM374.4 65.3L368 62.5l-6.4 2.8-128 56-5.1 2.2-2.6 4.9-64 120L160 252v4V496v16h16H560h16V496 256v-4l-1.9-3.5-64-120-2.6-4.9-5.1-2.2-128-56zM192 260l59.5-111.6L368 97.5l116.5 51L544 260V480H448V384 368H432 304 288v16 96H192V260zM416 480H320V400h96v80zM336 192H304v32 64 32h32 64 32V288 224 192H400 336zm64 32v64H336V224h64z"/></svg>
